Newaita-dark/apps/256/qv4l2.svg

<?xml version="1.0" encoding="UTF-8"?>
<svg xmlns="http://www.w3.org/2000/svg" xmlns:xlink="http://www.w3.org/1999/xlink" width="256pt" height="256pt" viewBox="0 0 256 256" version="1.1">
<defs>
<linearGradient id="linear0" gradientUnits="userSpaceOnUse" x1="111.125038" y1="233.499985" x2="111.125038" y2="254.666641" gradientTransform="matrix(0.500048,0,0,0.500048,-0.0000305205,107.510281)">
<stop offset="0" style="stop-color:rgb(0%,0%,0%);stop-opacity:0.27451;"/>
<stop offset="1" style="stop-color:rgb(0%,0%,0%);stop-opacity:0;"/>
</linearGradient>
<radialGradient id="radial0" gradientUnits="userSpaceOnUse" cx="450.908936" cy="189.579361" fx="450.908936" fy="189.579361" r="21.166656" gradientTransform="matrix(0.00000139336,-0.62506,-1.125108,-0.000000812309,268.864372,508.762661)">
<stop offset="0" style="stop-color:rgb(0%,0%,0%);stop-opacity:0.313725;"/>
<stop offset="0.222222" style="stop-color:rgb(0%,0%,0%);stop-opacity:0.27451;"/>
<stop offset="1" style="stop-color:rgb(0%,0%,0%);stop-opacity:0;"/>
</radialGradient>
<radialGradient id="radial1" gradientUnits="userSpaceOnUse" cx="450.908936" cy="189.579361" fx="450.908936" fy="189.579361" r="21.166656" gradientTransform="matrix(-0.00000139336,0.62506,1.125108,0.000000812309,-157.728776,-60.219831)">
<stop offset="0" style="stop-color:rgb(0%,0%,0%);stop-opacity:0.313725;"/>
<stop offset="0.222222" style="stop-color:rgb(0%,0%,0%);stop-opacity:0.27451;"/>
<stop offset="1" style="stop-color:rgb(0%,0%,0%);stop-opacity:0;"/>
</radialGradient>
<radialGradient id="radial2" gradientUnits="userSpaceOnUse" cx="450.908936" cy="189.579361" fx="450.908936" fy="189.579361" r="21.166656" gradientTransform="matrix(-0.00000139336,-0.62506,1.125108,-0.000000812309,-157.728776,508.762661)">
<stop offset="0" style="stop-color:rgb(0%,0%,0%);stop-opacity:0.313725;"/>
<stop offset="0.222222" style="stop-color:rgb(0%,0%,0%);stop-opacity:0.27451;"/>
<stop offset="1" style="stop-color:rgb(0%,0%,0%);stop-opacity:0;"/>
</radialGradient>
<radialGradient id="radial3" gradientUnits="userSpaceOnUse" cx="450.908936" cy="189.579361" fx="450.908936" fy="189.579361" r="21.166656" gradientTransform="matrix(0.00000139336,0.62506,-1.125108,0.000000812309,268.864357,-60.219835)">
<stop offset="0" style="stop-color:rgb(0%,0%,0%);stop-opacity:0.313725;"/>
<stop offset="0.222222" style="stop-color:rgb(0%,0%,0%);stop-opacity:0.27451;"/>
<stop offset="1" style="stop-color:rgb(0%,0%,0%);stop-opacity:0;"/>
</radialGradient>
<linearGradient id="linear1" gradientUnits="userSpaceOnUse" x1="127" y1="233.5" x2="127" y2="170" gradientTransform="matrix(1,0,0,1,-10.583323,0)">
<stop offset="0" style="stop-color:rgb(47.45098%,33.333333%,28.235294%);stop-opacity:1;"/>
<stop offset="1" style="stop-color:rgb(55.294118%,43.137255%,38.823529%);stop-opacity:1;"/>
</linearGradient>
<linearGradient id="linear2" gradientUnits="userSpaceOnUse" x1="111.125038" y1="233.499985" x2="111.125038" y2="254.666641" gradientTransform="matrix(0.500048,0,0,0.500048,142.888583,107.510281)">
<stop offset="0" style="stop-color:rgb(0%,0%,0%);stop-opacity:0.27451;"/>
<stop offset="1" style="stop-color:rgb(0%,0%,0%);stop-opacity:0;"/>
</linearGradient>
<radialGradient id="radial4" gradientUnits="userSpaceOnUse" cx="450.908936" cy="189.579361" fx="450.908936" fy="189.579361" r="21.166656" gradientTransform="matrix(0.00000139336,-0.62506,-1.125108,-0.000000812309,411.752986,508.762661)">
<stop offset="0" style="stop-color:rgb(0%,0%,0%);stop-opacity:0.313725;"/>
<stop offset="0.222222" style="stop-color:rgb(0%,0%,0%);stop-opacity:0.27451;"/>
<stop offset="1" style="stop-color:rgb(0%,0%,0%);stop-opacity:0;"/>
</radialGradient>
<radialGradient id="radial5" gradientUnits="userSpaceOnUse" cx="450.908936" cy="189.579361" fx="450.908936" fy="189.579361" r="21.166656" gradientTransform="matrix(-0.00000139336,0.62506,1.125108,0.000000812309,-14.840162,-60.219831)">
<stop offset="0" style="stop-color:rgb(0%,0%,0%);stop-opacity:0.313725;"/>
<stop offset="0.222222" style="stop-color:rgb(0%,0%,0%);stop-opacity:0.27451;"/>
<stop offset="1" style="stop-color:rgb(0%,0%,0%);stop-opacity:0;"/>
</radialGradient>
<radialGradient id="radial6" gradientUnits="userSpaceOnUse" cx="450.908936" cy="189.579361" fx="450.908936" fy="189.579361" r="21.166656" gradientTransform="matrix(-0.00000139336,-0.62506,1.125108,-0.000000812309,-14.840162,508.762661)">
<stop offset="0" style="stop-color:rgb(0%,0%,0%);stop-opacity:0.313725;"/>
<stop offset="0.222222" style="stop-color:rgb(0%,0%,0%);stop-opacity:0.27451;"/>
<stop offset="1" style="stop-color:rgb(0%,0%,0%);stop-opacity:0;"/>
</radialGradient>
<radialGradient id="radial7" gradientUnits="userSpaceOnUse" cx="450.908936" cy="189.579361" fx="450.908936" fy="189.579361" r="21.166656" gradientTransform="matrix(0.00000139336,0.62506,-1.125108,0.000000812309,411.75297,-60.219835)">
<stop offset="0" style="stop-color:rgb(0%,0%,0%);stop-opacity:0.313725;"/>
<stop offset="0.222222" style="stop-color:rgb(0%,0%,0%);stop-opacity:0.27451;"/>
<stop offset="1" style="stop-color:rgb(0%,0%,0%);stop-opacity:0;"/>
</radialGradient>
<linearGradient id="linear3" gradientUnits="userSpaceOnUse" x1="127" y1="233.5" x2="127" y2="170" gradientTransform="matrix(1,0,0,1,275.166656,0)">
<stop offset="0" style="stop-color:rgb(47.45098%,33.333333%,28.235294%);stop-opacity:1;"/>
<stop offset="1" style="stop-color:rgb(55.294118%,43.137255%,38.823529%);stop-opacity:1;"/>
</linearGradient>
<linearGradient id="linear4" gradientUnits="userSpaceOnUse" x1="305.954559" y1="-37.962509" x2="305.954559" y2="-141.414581" gradientTransform="matrix(0.602797,0,0,1.739297,-46.832105,269.130786)">
<stop offset="0" style="stop-color:rgb(47.45098%,33.333333%,28.235294%);stop-opacity:1;"/>
<stop offset="1" style="stop-color:rgb(55.294118%,43.137255%,38.823529%);stop-opacity:1;"/>
</linearGradient>
<linearGradient id="linear5" gradientUnits="userSpaceOnUse" x1="285.75" y1="-126.333344" x2="285.75" y2="148.833328" >
<stop offset="0" style="stop-color:rgb(63.137255%,53.333333%,49.803922%);stop-opacity:1;"/>
<stop offset="1" style="stop-color:rgb(73.72549%,66.666667%,64.313725%);stop-opacity:1;"/>
</linearGradient>
</defs>
<g id="surface1">
<path style=" stroke:none;fill-rule:nonzero;fill:url(#linear0);" d="M 52.921875 224.269531 L 58.214844 224.269531 L 58.214844 234.855469 L 52.921875 234.855469 Z M 52.921875 224.269531 "/>
<path style=" stroke:none;fill-rule:nonzero;fill:url(#radial0);" d="M 58.214844 224.269531 L 79.382812 224.269531 L 79.382812 213.6875 L 58.214844 213.6875 Z M 58.214844 224.269531 "/>
<path style=" stroke:none;fill-rule:nonzero;fill:url(#radial1);" d="M 52.921875 224.269531 L 31.753906 224.269531 L 31.753906 234.855469 L 52.921875 234.855469 Z M 52.921875 224.269531 "/>
<path style=" stroke:none;fill-rule:nonzero;fill:url(#radial2);" d="M 52.921875 224.269531 L 31.753906 224.269531 L 31.753906 213.6875 L 52.921875 213.6875 Z M 52.921875 224.269531 "/>
<path style=" stroke:none;fill-rule:nonzero;fill:url(#radial3);" d="M 58.214844 224.269531 L 79.382812 224.269531 L 79.382812 234.855469 L 58.214844 234.855469 Z M 58.214844 224.269531 "/>
<path style="fill-rule:nonzero;fill:url(#linear1);stroke-width:3;stroke-linecap:square;stroke-linejoin:round;stroke:rgb(12.941177%,12.941177%,12.941177%);stroke-opacity:1;stroke-miterlimit:4;" d="M 95.248717 170.002297 L 127.003497 170.002297 C 132.846689 170.002297 137.580612 174.73622 137.580612 180.587223 L 137.580612 222.919118 C 137.580612 228.76231 132.846689 233.496233 127.003497 233.496233 L 95.248717 233.496233 C 89.405525 233.496233 84.66379 228.76231 84.66379 222.919118 L 84.66379 180.587223 C 84.66379 174.73622 89.405525 170.002297 95.248717 170.002297 Z M 95.248717 170.002297 " transform="matrix(0.500048,0,0,0.500048,0,107.510266)"/>
<path style=" stroke:none;fill-rule:nonzero;fill:url(#linear2);" d="M 195.808594 224.269531 L 201.101562 224.269531 L 201.101562 234.855469 L 195.808594 234.855469 Z M 195.808594 224.269531 "/>
<path style=" stroke:none;fill-rule:nonzero;fill:url(#radial4);" d="M 201.101562 224.269531 L 222.269531 224.269531 L 222.269531 213.6875 L 201.101562 213.6875 Z M 201.101562 224.269531 "/>
<path style=" stroke:none;fill-rule:nonzero;fill:url(#radial5);" d="M 195.808594 224.269531 L 174.640625 224.269531 L 174.640625 234.855469 L 195.808594 234.855469 Z M 195.808594 224.269531 "/>
<path style=" stroke:none;fill-rule:nonzero;fill:url(#radial6);" d="M 195.808594 224.269531 L 174.640625 224.269531 L 174.640625 213.6875 L 195.808594 213.6875 Z M 195.808594 224.269531 "/>
<path style=" stroke:none;fill-rule:nonzero;fill:url(#radial7);" d="M 201.101562 224.269531 L 222.269531 224.269531 L 222.269531 234.855469 L 201.101562 234.855469 Z M 201.101562 224.269531 "/>
<path style="fill-rule:nonzero;fill:url(#linear3);stroke-width:3;stroke-linecap:square;stroke-linejoin:round;stroke:rgb(12.941177%,12.941177%,12.941177%);stroke-opacity:1;stroke-miterlimit:4;" d="M 381.002679 170.002297 L 412.749647 170.002297 C 418.592839 170.002297 423.334574 174.73622 423.334574 180.587223 L 423.334574 222.919118 C 423.334574 228.76231 418.592839 233.496233 412.749647 233.496233 L 381.002679 233.496233 C 375.151675 233.496233 370.417752 228.76231 370.417752 222.919118 L 370.417752 180.587223 C 370.417752 174.73622 375.151675 170.002297 381.002679 170.002297 Z M 381.002679 170.002297 " transform="matrix(0.500048,0,0,0.500048,0,107.510266)"/>
<path style=" stroke:none;fill-rule:nonzero;fill:url(#linear4);" d="M 31.753906 23.167969 L 222.269531 23.167969 C 228.117188 23.167969 232.855469 27.90625 232.855469 33.753906 L 232.855469 192.519531 C 232.855469 198.363281 228.117188 203.101562 222.269531 203.101562 L 31.753906 203.101562 C 25.90625 203.101562 21.167969 198.363281 21.167969 192.519531 L 21.167969 33.753906 C 21.167969 27.90625 25.90625 23.167969 31.753906 23.167969 Z M 31.753906 23.167969 "/>
<path style=" stroke:none;fill-rule:nonzero;fill:rgb(0%,0%,0%);fill-opacity:0.196078;" d="M 31.753906 203.101562 C 25.890625 203.101562 21.167969 186.65625 21.167969 192.519531 C 21.167969 198.382812 25.890625 201.78125 31.753906 201.78125 L 222.269531 201.78125 C 228.136719 201.78125 232.855469 197.058594 232.855469 191.195312 L 232.855469 192.519531 C 232.855469 198.382812 228.136719 203.101562 222.269531 203.101562 Z M 31.753906 203.101562 "/>
<path style=" stroke:none;fill-rule:nonzero;fill:rgb(90.196079%,90.196079%,90.196079%);fill-opacity:0.937255;" d="M 31.753906 23.167969 C 25.890625 23.167969 21.167969 27.890625 21.167969 33.753906 L 21.167969 35.074219 C 21.167969 29.210938 25.890625 24.480469 31.753906 24.492188 L 222.269531 24.492188 C 228.136719 24.480469 232.855469 29.210938 232.855469 35.074219 L 232.855469 33.753906 C 232.855469 27.890625 228.136719 23.167969 222.269531 23.167969 Z M 31.753906 23.167969 "/>
<path style="fill-rule:nonzero;fill:url(#linear5);stroke-width:3;stroke-linecap:round;stroke-linejoin:miter;stroke:rgb(12.941177%,12.941177%,12.941177%);stroke-opacity:1;stroke-miterlimit:4;" d="M 95.248717 -126.336592 L 412.749647 -126.336592 C 418.592839 -126.336592 423.334574 -121.594857 423.334574 -115.751665 L 423.334574 138.247517 C 423.334574 144.09852 418.592839 148.832443 412.749647 148.832443 L 95.248717 148.832443 C 89.405525 148.832443 84.66379 144.09852 84.66379 138.247517 L 84.66379 -115.751665 C 84.66379 -121.594857 89.405525 -126.336592 95.248717 -126.336592 Z M 95.248717 -126.336592 " transform="matrix(0.500048,0,0,0.500048,0,107.510266)"/>
<path style=" stroke:none;fill-rule:nonzero;fill:rgb(12.941177%,12.941177%,12.941177%);fill-opacity:1;" d="M 31.753906 22.417969 C 25.488281 22.417969 20.417969 27.488281 20.417969 33.753906 L 20.417969 192.519531 C 20.417969 198.785156 25.488281 203.851562 31.753906 203.851562 L 222.269531 203.851562 C 228.539062 203.851562 233.605469 198.785156 233.605469 192.519531 L 233.605469 33.753906 C 233.605469 27.488281 228.539062 22.417969 222.269531 22.417969 Z M 31.753906 23.917969 L 222.269531 23.917969 C 227.730469 23.917969 232.105469 28.292969 232.105469 33.753906 L 232.105469 192.519531 C 232.105469 197.980469 227.730469 202.351562 222.269531 202.351562 L 31.753906 202.351562 C 26.292969 202.351562 21.917969 197.980469 21.917969 192.519531 L 21.917969 33.753906 C 21.917969 28.292969 26.292969 23.917969 31.753906 23.917969 Z M 31.753906 23.917969 "/>
</g>
</svg>

<svg xmlns="http://www.w3.org/2000/svg" width="256pt" height="256pt" viewBox="0 0 256 256"><defs><linearGradient id="a" gradientUnits="userSpaceOnUse" x1="111.125" y1="233.5" x2="111.125" y2="254.667" gradientTransform="matrix(.50005 0 0 .50005 0 107.51)"><stop offset="0" stop-opacity=".275"/><stop offset="1" stop-opacity="0"/></linearGradient><radialGradient id="b" gradientUnits="userSpaceOnUse" cx="450.909" cy="189.579" fx="450.909" fy="189.579" r="21.167" gradientTransform="matrix(0 -.62506 -1.1251 0 268.864 508.763)"><stop offset="0" stop-opacity=".314"/><stop offset=".222" stop-opacity=".275"/><stop offset="1" stop-opacity="0"/></radialGradient><radialGradient id="c" gradientUnits="userSpaceOnUse" cx="450.909" cy="189.579" fx="450.909" fy="189.579" r="21.167" gradientTransform="matrix(0 .62506 1.1251 0 -157.729 -60.22)"><stop offset="0" stop-opacity=".314"/><stop offset=".222" stop-opacity=".275"/><stop offset="1" stop-opacity="0"/></radialGradient><radialGradient id="d" gradientUnits="userSpaceOnUse" cx="450.909" cy="189.579" fx="450.909" fy="189.579" r="21.167" gradientTransform="matrix(0 -.62506 1.1251 0 -157.729 508.763)"><stop offset="0" stop-opacity=".314"/><stop offset=".222" stop-opacity=".275"/><stop offset="1" stop-opacity="0"/></radialGradient><radialGradient id="e" gradientUnits="userSpaceOnUse" cx="450.909" cy="189.579" fx="450.909" fy="189.579" r="21.167" gradientTransform="matrix(0 .62506 -1.1251 0 268.864 -60.22)"><stop offset="0" stop-opacity=".314"/><stop offset=".222" stop-opacity=".275"/><stop offset="1" stop-opacity="0"/></radialGradient><linearGradient id="f" gradientUnits="userSpaceOnUse" x1="127" y1="233.5" x2="127" y2="170" gradientTransform="translate(-10.583)"><stop offset="0" stop-color="#795548"/><stop offset="1" stop-color="#8d6e63"/></linearGradient><linearGradient id="g" gradientUnits="userSpaceOnUse" x1="111.125" y1="233.5" x2="111.125" y2="254.667" gradientTransform="matrix(.50005 0 0 .50005 142.889 107.51)"><stop offset="0" stop-opacity=".275"/><stop offset="1" stop-opacity="0"/></linearGradient><radialGradient id="h" gradientUnits="userSpaceOnUse" cx="450.909" cy="189.579" fx="450.909" fy="189.579" r="21.167" gradientTransform="matrix(0 -.62506 -1.1251 0 411.753 508.763)"><stop offset="0" stop-opacity=".314"/><stop offset=".222" stop-opacity=".275"/><stop offset="1" stop-opacity="0"/></radialGradient><radialGradient id="i" gradientUnits="userSpaceOnUse" cx="450.909" cy="189.579" fx="450.909" fy="189.579" r="21.167" gradientTransform="matrix(0 .62506 1.1251 0 -14.84 -60.22)"><stop offset="0" stop-opacity=".314"/><stop offset=".222" stop-opacity=".275"/><stop offset="1" stop-opacity="0"/></radialGradient><radialGradient id="j" gradientUnits="userSpaceOnUse" cx="450.909" cy="189.579" fx="450.909" fy="189.579" r="21.167" gradientTransform="matrix(0 -.62506 1.1251 0 -14.84 508.763)"><stop offset="0" stop-opacity=".314"/><stop offset=".222" stop-opacity=".275"/><stop offset="1" stop-opacity="0"/></radialGradient><radialGradient id="k" gradientUnits="userSpaceOnUse" cx="450.909" cy="189.579" fx="450.909" fy="189.579" r="21.167" gradientTransform="matrix(0 .62506 -1.1251 0 411.753 -60.22)"><stop offset="0" stop-opacity=".314"/><stop offset=".222" stop-opacity=".275"/><stop offset="1" stop-opacity="0"/></radialGradient><linearGradient id="l" gradientUnits="userSpaceOnUse" x1="127" y1="233.5" x2="127" y2="170" gradientTransform="translate(275.167)"><stop offset="0" stop-color="#795548"/><stop offset="1" stop-color="#8d6e63"/></linearGradient><linearGradient id="m" gradientUnits="userSpaceOnUse" x1="305.955" y1="-37.963" x2="305.955" y2="-141.415" gradientTransform="matrix(.6028 0 0 1.7393 -46.832 269.13)"><stop offset="0" stop-color="#795548"/><stop offset="1" stop-color="#8d6e63"/></linearGradient><linearGradient id="n" gradientUnits="userSpaceOnUse" x1="285.75" y1="-126.333" x2="285.75" y2="148.833"><stop offset="0" stop-color="#a1887f"/><stop offset="1" stop-color="#bcaaa4"/></linearGradient></defs><path d="M52.922 224.27h5.293v10.585h-5.293zm0 0" fill="url(#a)"/><path d="M58.215 224.27h21.168v-10.583H58.215zm0 0" fill="url(#b)"/><path d="M52.922 224.27H31.754v10.585h21.168zm0 0" fill="url(#c)"/><path d="M52.922 224.27H31.754v-10.583h21.168zm0 0" fill="url(#d)"/><path d="M58.215 224.27h21.168v10.585H58.215zm0 0" fill="url(#e)"/><path d="M95.249 170.002h31.754c5.844 0 10.578 4.734 10.578 10.585v42.332c0 5.843-4.734 10.577-10.578 10.577H95.25c-5.843 0-10.585-4.734-10.585-10.577v-42.332c0-5.85 4.742-10.585 10.585-10.585zm0 0" transform="matrix(.50005 0 0 .50005 0 107.51)" fill="url(#f)" stroke-width="3" stroke-linecap="square" stroke-linejoin="round" stroke="#212121"/><path d="M195.809 224.27h5.293v10.585h-5.293zm0 0" fill="url(#g)"/><path d="M201.102 224.27h21.168v-10.583h-21.168zm0 0" fill="url(#h)"/><path d="M195.809 224.27H174.64v10.585h21.168zm0 0" fill="url(#i)"/><path d="M195.809 224.27H174.64v-10.583h21.168zm0 0" fill="url(#j)"/><path d="M201.102 224.27h21.168v10.585h-21.168zm0 0" fill="url(#k)"/><path d="M381.003 170.002h31.747c5.843 0 10.585 4.734 10.585 10.585v42.332c0 5.843-4.742 10.577-10.585 10.577h-31.747c-5.851 0-10.585-4.734-10.585-10.577v-42.332a10.578 10.578 0 0 1 10.585-10.585zm0 0" transform="matrix(.50005 0 0 .50005 0 107.51)" fill="url(#l)" stroke-width="3" stroke-linecap="square" stroke-linejoin="round" stroke="#212121"/><path d="M31.754 23.168H222.27c5.847 0 10.585 4.738 10.585 10.586V192.52c0 5.843-4.738 10.582-10.585 10.582H31.754c-5.848 0-10.586-4.739-10.586-10.582V33.754c0-5.848 4.738-10.586 10.586-10.586zm0 0" fill="url(#m)"/><path d="M31.754 203.102c-5.863 0-10.586-16.446-10.586-10.582 0 5.863 4.723 9.261 10.586 9.261H222.27a10.562 10.562 0 0 0 10.585-10.586v1.325a10.559 10.559 0 0 1-10.585 10.582zm0 0" fill-opacity=".196"/><path d="M31.754 23.168a10.564 10.564 0 0 0-10.586 10.586v1.32c0-5.863 4.723-10.594 10.586-10.582H222.27c5.867-.012 10.585 4.719 10.585 10.582v-1.32a10.562 10.562 0 0 0-10.585-10.586zm0 0" fill="#e6e6e6" fill-opacity=".937"/><path d="M95.249-126.337h317.5c5.844 0 10.586 4.742 10.586 10.585v254c0 5.85-4.742 10.584-10.585 10.584H95.249c-5.843 0-10.585-4.733-10.585-10.584v-254c0-5.843 4.742-10.585 10.585-10.585zm0 0" transform="matrix(.50005 0 0 .50005 0 107.51)" fill="url(#n)" stroke-width="3" stroke-linecap="round" stroke="#212121"/><path d="M31.754 22.418a11.33 11.33 0 0 0-11.336 11.336V192.52c0 6.265 5.07 11.332 11.336 11.332H222.27c6.27 0 11.335-5.067 11.335-11.332V33.754a11.327 11.327 0 0 0-11.335-11.336zm0 1.5H222.27a9.8 9.8 0 0 1 9.835 9.836V192.52a9.796 9.796 0 0 1-9.835 9.832H31.754a9.796 9.796 0 0 1-9.836-9.832V33.754a9.8 9.8 0 0 1 9.836-9.836zm0 0" fill="#212121"/></svg>
